X:654
T:Wise Maid, The
T:All Around the World
S:Various
Z:Nigel Gatherer
L:1/8
M:4/4
K:D
DE |: F3 G  FEDE | FAAB AFED | d2 (3efg fdec | dBAF BEED   | 
      F3 G  FEDE | FAAB AFED | d2 (3efg fdec |1 dBAG FDDE :|
                                              2 dBAG FDD  ||
A  |  d2 AG FDFA | dfaf gfeg | fAdf     eAce | dfed cA A2  | 
      BDGB  ADFA | dfaf gfed | (3Bcd ce dBAG  | FAEA D3  :|]
<end>
<start>
